**kern	**kern	**kern	**kern
*staff3	*staff4	*staff1	*staff2
*clefF4	*clefF4	*clefG2	*clefG2
*k[f#c#]	*k[f#c#]	*k[f#c#]	*k[f#c#]
*M2/4	*M2/4	*M2/4	*M2/4
*D:	*D:	*D:	*D:
=-	=-	=-	=-
*M2/4	*M2/4	*M2/4	*M2/4
2r	8d' 8f#'	2r	2r
.	8r	.	.
.	8A' 8e'	.	.
.	8r	.	.
=356	=356	=356	=356
2r	8F#' 8d'	24r	2r
.	.	24aaLL	.
.	.	24bb-J	.
.	8r	24bbL	.
.	.	24ccc	.
.	.	24ccc#JJ	.
.	8r	8ddd	.
.	16r	8r	.
.	16A' 16c#'	.	.
=357	=357	=357	=357
2r	8G' 8B'	2r	2r
.	8r	.	.
.	8G' 8d'	.	.
.	8r	.	.
=358	=358	=358	=358
2r	8F#' 8A'	24r	2r
.	.	24dddLL	.
.	.	24ccc#J	.
.	8r	24cccL	.
.	.	24bb	.
.	.	24bb-JJ	.
.	8r	8aa	.
.	16r	8r	.
.	16E' 16G'	.	.
=359	=359	=359	=359
2r	8D' 8F#'	2r	2r
.	8r	.	.
.	8d' 8f#'	.	.
.	8r	.	.
=360	=360	=360	=360
2r	8c#' 8g'	24r	2r
.	.	24eeLL	.
.	.	24ffJ	.
.	8r	24ff#L	.
.	.	24gg	.
.	.	24gg#JJ	.
.	8r	8aa	.
.	16r	8r	.
.	16C#' 16G'	.	.
=361	=361	=361	=361
2r	8D' 8F#'	2r	2r
.	8r	.	.
.	8d' 8f#'	.	.
.	8r	.	.
=362	=362	=362	=362
2r	8A' 8e'	24r	2r
.	.	24aaLL	.
.	.	24gg#J	.
.	8r	24ggL	.
.	.	24ff#	.
.	.	24ffJJ	.
.	4r	8ee	.
.	.	8r	.
=363:|!|:	=363:|!|:	=363:|!|:	=363:|!|:
*-	*-	*-	*-
